X:1
T:Title
%%score [ 1 2 3 4 ]
L:1/8
Q:1/4=100
M:2/2
K:Eb
V:1 treble nm="Soprano"
V:2 treble nm="Alto"
V:3 treble-8 nm="Tenor"
V:4 bass nm="Bass"
V:1
 F2 AB c2 G2 | c2 B2- BG A2 | G2 c2- c=B/=A/ B2 | c2 G2 =A2 A2 | B2 c2 B3 B | A2 G2- GF F2- | %6
w: Mon- sieur l'Ab- bé et|mon- sieur _ _ _|son va- * * * *|let, sont faits é-|gaux tous deux com-|me de- _ _ _|
 F2 =E2 FFAB | cFAB c2 G2 | c2 B2- BG A2 | G2 c2- c=B/=A/ B2 | c2 G2 =A2 A2 | B2 c2 B3 B | %12
w: _ ci- re, L'un est grand|fol, l'un est grand fol, l'au-|tre pe- * * *|tit fol- * * * *|let: L'un veut rail-|ler, L'au- tre gau-|
 A2 G2- GF F2- | F2 =E2 F4 | z4 z2 e2 | d2 c2 B2 e2 | dcc=B c2 B2 | z c2 e2 c2 e- | eBcA B A2 G | %19
w: dir _ _ _ et|_ ri- re.|L'un|boit du bon, l'au-|tre ne boit du pi- re|Mais un dé- bat|_ au soir en- tr'eux s'é- *|
 A2 c2 c2 c2 | =B2 z c c2 c2 | =B2 c2 dd e2- | ed c4 =B2 | c2 e2 d2 c2 | cc f2- ff B2 | %25
w: meut, Car maîtr' Ab-|bé, car maîtr' Ab-|bé tou- te la nuit|_ _ _ ne|veut ê- tre sans|vin que sans _ se- cours|
 B2 e2- edcB | A4 G4 | z2 G2 c2 c2 | B6 G2 | A4 F4 | F4 E4 | E2 z A A2 A2 | G2 z B e2 e2 | d4 z4 | %34
w: ne meu- * * * *|* re:|Et son va-|let ja-|mais dor-|mir ne|peut Tan- dis qu'au|pot, tan- dis qu'au|pot|
 z8 | B4 c4- | c2 B2 =A2 B2 | G4 F2 A2 | B6 A2 | GG A2 F2 f2 | e4 e4 | c2 _d2 c4 | =A8 |] %43
w: |u- ne|_ goutte en de-|meu- re, u-|ne goutte|en de- meu- re, u-|ne goutte|en de- meu-|re.|
V:2
 z4 C2 EF | G2 G2 G2 C2 | CDEF G2 G2 | =E2 _E2 F2 F2 | G4 G4 | F2 E2 _D2 B,2 | C4 C4 | z4 C2 EF | %8
w: Mon- sieur l'Ab-|bé et mon- sieur|son _ _ _ _ va-|let, sont faits é-|gaux tous|deux com- me de|ci- re|L'un est grand|
 G2 G2 G2 C2 | CDEF G2 G2 | =E2 _E2 F2 F2 | G4 G4 | F2 E2 _D2 B,2 | C4 C4 | z4 E4 | F2 F2 G2 G2 | %16
w: fol, l'au- tre pe-|tit _ _ _ _ fol-|let: L'un veut rail-|ler, L'au-|tre gau- dri et|ri- re.|L'un|boit du bon, l'au-|
 GEA G- GF G2- | G2 A2 G2 A2 | GGAE F2 E2 | C2 z A A2 A2 | G2 z E A2 A2 | G2 G2 B2 B2 | %22
w: tre ne boit du _ pi- re|_ Mais un dé-|bat au soir en- tr'eux s'é-|meut, Car maîtr' Ab-|bé, car maîtr' Ab-|bé tou- te la|
 E3 F G2 G2 | E2 G2- GG G2 | =A2 A2 B2 F2 | G4 E4 | F4 B,4 | z2 C2 G4- | G2 G2 F2 E2 | E4 _D4 | %30
w: nuit _ _ ne|veut ê- * tre sans|vin que sans se-|cours ne|meu- re:|Et son|_ va- let ja-|mais dor-|
 _D4 B,4 | C2 E2 F2 E2 | E2 G2 G2 G2 | F2 F2 A2 G2 | G2 G2 F4 | G2 G2 A2 A2 | A2 G2- GF F2- | %37
w: mir ne|peut Tan- dis qu'au|pot, tan- dis qu'au|pot u- ne goutte|en de- meu-|re, u- ne goutte|en de- * * meu-|
 F2 =E2 F2 z F | E2 D2 B,B, C2 | C4 z2 D2 | G2 E2 A2 G2- | GF F4 =E2 | F8 |] %43
w: * * re: u-|ne goutte en de- meu-|re, u-|ne goutte en de-|* * meu- *|re.|
V:3
 z2 F2 AB c2 | e4 d2 f2 | e2- ed/c/ d2 d2 | c4 z2 c2 | e2 e2 d2 e2 | c3 c A2 F2 | G4 F4 | %7
w: Mon- sieur L'Ab- bé|et mon- sieur|son _ _ _ _ va-|let sont|faits é- gaux tous|deux com- me de|ci- re|
 z2 F2 AB c2 | e4 d2 f2 | e2- ed/c/ d2 d2 | c4 z2 c2 | e2 e2 d2 e2 | c3 c A2 F2 | G4 F2 A2 | %14
w: L'un est grand fol|l'au- tre pe-|tit _ _ _ _ fol-|let: L'un|veut rail- ler, L'au-|tre gau- dir et|ri- re: L'un|
 B2 B2 c2 z c | A2 A2 G2 c2 | =Bcfd c2 d2 | e3 c2 e2 c | B e2 c _d2 B2 | A2 z e e2 f2 | %20
w: boit du bon l'un|boit du bon, l'au-|tre ne boit du pi- re.|Mais un- dé- bat|au soir en- tr'eux s'é-|meut, Car maîtr' Ab-|
 d2 z c e2 f2 | d2 e2 f2 g2 | c4 d4 | c2 z c d2 =e2 | f2 z c d2 d2 | e2 B2 cd e2- | ed/c/ d2 e4 | %27
w: bé, car maîtr' Ab-|bé tou- te la|nuit ne|veut ê- tre sans|vin que sans se-|cours ne meu- * *|* * * * re:|
 z2 e2 e2 e2 | d6 B2 | c4 A4 | B2 A2- AG/F/ G2 | A2 c2 c2 c2 | B2 e2 c2 e2 | B2 d2 e4- | %34
w: Et son va-|let ja-|mais dor-|mir ne _ _ _ _|peut Tan- dis qu'au|pot, tan- dis qu'au|pot u- ne|
 e2 d2 c2 d2 | e2 d2 z2 f2 | c2 e2 f2 B2 | c8 | B4 z4 | z4 B4 | c6 B2 | =A2 B2 G4 | F8 |] %43
w: _ goutte en de-|meu- re, u-|ne goutte en de-|meu-|re,|u-|ne goutte|en de- meu-|re.|
V:4
 z8 | C,2 E,F, G,2 F,2 | C2 A,2 G,2 G,2 | C,2 C,2 F,2 F,2 | E,2 C,2 G,2 E,2 | F,2 C,2 _D,4 | %6
w: |Mon- sieur l'Ab- bé et|mon- sieur son va-|let, sont faits é-|gaux tous deux com-|me de ci-|
 C,4 z2 F,2 | A,B, C2 z4 | C,2 E,F, G,2 F,2 | C2 A,2 G,2 G,2 | C,2 C,2 F,2 F,2 | E,2 C,2 G,2 E,2 | %12
w: re L'un|est grand fol|l'un est grand fol, l'au-|tre pe- tit fol-|let: L'un veut rail-|ler, l'au- tre gau-|
 F,2 C,2 _D,4 | C,4 z2 F,2 | E,2 _D,2 C,4 | z4 z2 C,2 | G,A,F,G, A,2 G,2 | C2 A,2 C2 A,2 | %18
w: dir et ri-|re: L'un|boit du bon|l'au-|tre ne boit du pi- re|Mais un dé- bat|
 E,2 A,A, _D,2 E,2 | A,,2 A,2 A,2 F,2 | G,2 z A, A,2 F,2 | G,2 C2 B,2 G,2 | A,2 A,2 G,4 | %23
w: au soir en- tr'eux s'é-|meut, Car maîtr' Ab-|bé, car maîtr' Ab-|bé tou- te la|nuit ne veut|
 z2 C2 =B,2 C2 | F,2 F,2 B,3 B, | E,2 E,2 A,3 G, | F,4 E,4 | z2 C,2 C,2 C,2 | G,F,G,A, B,2 E,2 | %29
w: ê- tre sans|vin que sans se-|cours ne meu- *|* re:|Et son va-|let _ _ _ _ ja-|
 A,4 _D,4 | _D,4 E,4 | A,,2 A,2 F,2 A,2 | E,4 z4 | z2 B,2 C4- | C2 B,2 =A,2 A,2 | G,4 F,4 | z8 | %37
w: mais dor-|mir ne|peut Tan- dis qu'au|pot|u ne|_ goutte en de-|meu- re,||
 z4 F,4 | G,6 F,2 | =E,2 F,2 D,4 | C,2 A,2 A,2 E,2 | F,2 B,,2 C,4 | F,8 |] %43
w: u-|ne goutte|en de- meur|re, u- ne goutte|en de- meu-|re.|

